X: 2028
T: Yüzündür Cihânı Münevver Eden
C: Dede Efendi
O: Turkey
F: http://compmusic.upf.edu/node/140
N: rast--sarki--yuruksemai--yuzundur_cihani--dede_efendi
N: makam= rast
N: form= sarki
N: usul= yuruksemai = 6/8
M: 6/8
L: 1/16
K: C _1/4B ^f  
Q: 1/4=112
%%MIDI tuningsystem comma53
G4B8B3A G8  | G4c8c3B A8  | A4d8^c4 d4e4  | \
w:  Yü zün dür   |  ci hâ nı   |  mü nev ver_ *  e  | 
d4c4 B4A2G2 F2E2D4  | 
w:  den    | 
G4B8B3A G8  | G4c8c3B A8  | A4d8^c4 d4e4  | \
w:  Yü zün dür   |  ci hâ nı   |  mü nev ver_ *  e  | 
d16-d4z4  | d4g8a2g2 ^1/4f2e2d4  | 
w:  den  |  Fe dâ dır   | 
c4d4 e4d2c2 B2A2G4  | B4A4 G4F4 G4A4  | \
w:  yo *  lu na   |  bu  *  *  cân_ *  ü   | 
G4A4 B4c4 d8  | d4g8a2g2 ^1/4f2e2d4  | 
w:  ten    |  Fe dâ dır   | 
c4d4 e4d2c2 B2A2G4  | B4A4 G4F4 G4A4  | \
w:  yo *  lu na   |  bu  *  *  cân_ *  ü   | 
G12d2ef g8  | d4g8g3f g8  | 
w:  ten   SAZ  |  Se nin  çün   | 
f4e4 f4a2g2 f2e2d4  | d4g8f4 g4a4  | \
w:  yan *  dı ğım   |  ne den dir  *  ne  | 
g4=f4 e4d2c2 B2A2G4  | 
w:  den    | 
d4g8g3f g8  | f4e4 f4a2g2 f2e2d4  | d4g8f4 g4a4  | \
w:  Se nin  çün   |  yan *  dı ğım   |  ne den dir  *  ne  | 
g16-g4z4  | 
w:  den    | 
d12^c4 d4e4  | d12g2=f2 e2d2c2B2  | d4c4 B4^A4 B4c4  | \
w:  Sen den  *  mi  |  dir   |  ben *  *  den  *  mi  | 
B8 e4d2c2 B2A2G4  | 
w:  dir    | 
B4A4 G4F4 G4A4  | G4A4 B4c4 d8  | B8 G4A8F4  | \
w:  Dil *  *  den  *  mi  |  dir   |  bil *  mem  ne  | 
G16-G4z4  | d12^c4 d4e4  | 
w:  den  |  Sen den  *  mi  | 
d12g2=f2 e2d2c2B2  | d4c4 B4^A4 B4c4  | \
w:  dir   |  ben *  *  den  *  mi  | 
B8 e4d2c2 B2A2G4  | B4A4 G4F4 G4A4  | 
w:  dir    |  Dil *  *  den  *  mi  | 
G4A4 B4c4 d8  | B8 G4A8F4  | G16-G4z4  | |


